X:1
T:[ID 5-46]
T:[ID 5-46]
T:Bezeichnung standardisiert: Anglaise Angl 26. In dieser Quelle auch als: Angeloise
T:Urheber unbekannt Datum in der hier transkribierten schriftlichen Quelle: 1775
C:Urheber unbekannt
C:Datum in der hier transkribierten schriftlichen Quelle: 1775
L:1/8
M:2/4
K:G
V:1 treble 
V:1
 B,G/A/ Bc/d/ | eeeB | cAGF | G/F/E/D/ B,B, | B,G/A/ Bc/d/ | eeeg | cB A/B/c/A/ | B2 B2 :: %8
 g/f/e/d/ c/B/A/G/ | Af f2 | f/e/d/c/ B/A/G/F/ | GB B2 | e/d/c/B/ A/G/F/E/ | c/B/A/G/ F/E/D/C/ | %14
 B,cBD | B,2 B,2 :: B2 B2 | B/c/d/e/ f/e/d/c/ | B2 B2 | B/c/d/e/ f/e/d/c/ | BA/G/ AG/F/ | %21
 GF/E/ DD | Bc/d/ eA | GD B,2 :| %24

